src/main/resources/icons/DatabaseIcons/icons/toolWindowDatabase.svg

<svg xmlns="http://www.w3.org/2000/svg" width="13" height="13" viewBox="0 0 13 13">
  <path fill="#6E6E6E" fill-rule="evenodd" d="M1,3.50728282 C2.21656017,4.20871409 4.22647384,4.66697249 6.5,4.66697249 C8.77352616,4.66697249 10.7834398,4.20871409 12,3.50728282 C12,4.2164002 12,4.63935487 12,4.77614683 C12,5.68057644 9.53756612,6.41376151 6.5,6.41376151 C3.46243388,6.41376151 1,5.68057644 1,4.77614683 C1,4.65790961 1,4.23495495 1,3.50728282 Z M12,6.34581483 C12,7.10598848 12,7.55557115 12,7.69456284 C12,8.55487395 9.53756612,9.2522939 6.5,9.2522939 C3.46243388,9.2522939 1,8.55487395 1,7.69456284 C1,7.57462201 1,7.12503933 1,6.34581483 C2.21656017,7.04724609 4.22647384,7.5055045 6.5,7.5055045 C8.77352616,7.5055045 10.7834398,7.04724609 12,6.34581483 Z M12,9.18434683 L12,10.5623853 C12,11.4668149 9.53756612,12.2 6.5,12.2 C3.46243388,12.2 1,11.4668149 1,10.5623853 L1,9.18434683 C2.21656017,9.8857781 4.22647384,10.3440365 6.5,10.3440365 C8.77352616,10.3440365 10.7834398,9.8857781 12,9.18434683 Z M6.5,3.57522937 C3.46243388,3.57522937 1,2.8420443 1,1.93761469 C1,1.03318508 3.46243388,0.300000012 6.5,0.300000012 C9.53756612,0.300000012 12,1.03318508 12,1.93761469 C12,2.8420443 9.53756612,3.57522937 6.5,3.57522937 Z"/>
</svg>

<svg xmlns="http://www.w3.org/2000/svg" width="13" height="13" viewBox="0 0 13 13"><rect id="frame" width="13" height="13" fill="none"/><path fill="#6E6E6E" fill-rule="evenodd" d="M1 3.507c1.217.702 3.226 1.16 5.5 1.16s4.283-.458 5.5-1.16v1.27c0 .904-2.462 1.637-5.5 1.637S1 5.68 1 4.776V3.507zm11 2.839v1.349c0 .86-2.462 1.557-5.5 1.557S1 8.555 1 7.695v-1.35c1.217.702 3.226 1.16 5.5 1.16s4.283-.458 5.5-1.16zm0 2.838v1.378c0 .905-2.462 1.638-5.5 1.638S1 11.467 1 10.562V9.184c1.217.702 3.226 1.16 5.5 1.16s4.283-.458 5.5-1.16zM6.5 3.575c-3.038 0-5.5-.733-5.5-1.637C1 1.033 3.462.3 6.5.3s5.5.733 5.5 1.638c0 .904-2.462 1.637-5.5 1.637z"/></svg>
